assets/icons/tools-github.svg

<svg width="18px" height="18px" viewBox="0 0 18 18" version="1.1" xmlns="http://www.w3.org/2000/svg" xmlns:xlink="http://www.w3.org/1999/xlink">
    <!-- Generator: Sketch 47.1 (45422) - http://www.bohemiancoding.com/sketch -->
    <desc>Github icon - Created with Sketch.</desc>
    <defs></defs>
    <g id="-" stroke="none" stroke-width="1" fill="none" fill-rule="evenodd">
        <g id="intranet.st.5" transform="translate(-243.000000, -437.000000)" fill="#FFFFFF">
            <g id="Aside-Left" transform="translate(0.000000, 80.000000)">
                <g id="Group-9" transform="translate(100.000000, 75.000000)">
                    <g id="Group-13" transform="translate(0.000000, 51.000000)">
                        <g id="Group-10">
                            <g id="Group-28" transform="translate(133.000000, 231.000000)">
                                <g id="Group-29">
                                    <g id="Page-1" transform="translate(10.000000, 0.000000)">
                                        <g id="Group-3">
                                            <path d="M9,0.903200709 C4.03008876,0.903200709 5.38856808e-13,4.81697159 5.38856808e-13,9.64537923 C5.38856808e-13,13.5077579 2.57877393,16.7846995 6.15474929,17.9406626 C6.60454064,18.0215872 6.76967278,17.751018 6.76967278,17.520115 C6.76967278,17.3117955 6.76147579,16.622995 6.75745181,15.8925017 C4.25364311,16.4213348 3.72530966,14.8610381 3.72530966,14.8610381 C3.31590713,13.8507105 2.72602173,13.5818785 2.72602173,13.5818785 C1.90945221,13.0392925 2.78757369,13.0504395 2.78757369,13.0504395 C3.6913294,13.1121102 4.16720209,13.9514682 4.16720209,13.9514682 C4.96991124,15.2878107 6.27263695,14.901428 6.7862158,14.6780528 C6.86714248,14.1131727 7.10023515,13.7273692 7.35762072,13.5090608 C5.35859773,13.2881466 3.25718686,12.5383993 3.25718686,9.18863992 C3.25718686,8.23433706 3.60876333,7.45433346 4.1844903,6.84211459 C4.09104458,6.62192426 3.78298669,5.73276648 4.27182553,4.5285961 C4.27182553,4.5285961 5.02758826,4.29378432 6.74731735,5.42484746 C7.46522488,5.23114946 8.23514606,5.13401092 9,5.13053652 C9.76485394,5.13401092 10.5353713,5.23114946 11.2546201,5.42484746 C12.9724117,4.29378432 13.7271312,4.5285961 13.7271312,4.5285961 C14.2170133,5.73276648 13.9089554,6.62192426 13.8155097,6.84211459 C14.392578,7.45433346 14.7416209,8.23433706 14.7416209,9.18863992 C14.7416209,12.5465062 12.636335,13.2856856 10.6320958,13.502112 C10.9549083,13.773405 11.2425482,14.305423 11.2425482,15.1210393 C11.2425482,16.2907552 11.2322647,17.2321738 11.2322647,17.520115 C11.2322647,17.7529 11.3942671,18.0254959 11.8503179,17.9396492 C15.4245049,16.7823833 18,13.5065998 18,9.64537923 C18,4.81697159 13.9705074,0.903200709 9,0.903200709" id="Fill-1"></path>
                                            <path d="M3.38581422,13.0367817 C3.35699767,13.1145855 3.25473141,13.1378491 3.16156512,13.0843428 C3.06644883,13.0334215 3.01336571,12.9277014 3.04413226,12.8498977 C3.07229881,12.7702845 3.17456507,12.7480549 3.26946469,12.8013026 C3.36436431,12.852224 3.41853076,12.958978 3.38581422,13.0367817" id="Fill-4"></path>
                                            <path d="M3.71161633,13.3702896 C3.65309488,13.4204572 3.53849038,13.3971584 3.46107139,13.3178673 C3.3806044,13.2387641 3.36577084,13.132792 3.42510508,13.0820608 C3.48545532,13.0318932 3.59640223,13.0553799 3.67666602,13.1344831 C3.75713301,13.2145258 3.77277937,13.3193704 3.71161633,13.3702896" id="Fill-6"></path>
                                            <path d="M4.02985095,13.8014575 C3.96014996,13.8420193 3.84599105,13.8041302 3.77553654,13.719705 C3.70583555,13.6351226 3.70583555,13.5338753 3.77723197,13.4933135 C3.84768648,13.4527517 3.96014996,13.4893831 4.03154638,13.5730222 C4.10105898,13.6588623 4.10105898,13.7601096 4.02985095,13.8014575" id="Fill-8"></path>
                                            <path d="M4.4555924,14.2522176 C4.40288187,14.3084726 4.29061321,14.2933685 4.2084421,14.2164609 C4.12436004,14.1415569 4.10095083,14.0350576 4.15382061,13.9788026 C4.20716813,13.9223934 4.32007378,13.9382681 4.40288187,14.0144051 C4.48632694,14.0893091 4.51180635,14.196579 4.4555924,14.2522176" id="Fill-10"></path>
                                            <path d="M5.06418248,14.5423886 C5.04333223,14.628173 4.9463643,14.6669846 4.84868231,14.6305307 C4.75114314,14.5929887 4.68730711,14.4926953 4.70701488,14.4060041 C4.72729388,14.3194943 4.82469025,14.2790505 4.92308628,14.3180434 C5.02048264,14.355404 5.08446149,14.4551533 5.06418248,14.5423886" id="Fill-12"></path>
                                            <path d="M5.77000621,14.5789987 C5.77243398,14.6732614 5.68960423,14.7514352 5.58706671,14.7531387 C5.48395795,14.7561673 5.40041415,14.6798863 5.39927167,14.5871378 C5.39927167,14.4919286 5.4803877,14.4147013 5.58335365,14.4122406 C5.68589117,14.4095907 5.77000621,14.485493 5.77000621,14.5789987" id="Fill-14"></path>
                                            <path d="M6.4267319,14.4596548 C6.43901355,14.5496789 6.3677514,14.6423016 6.26592793,14.6669887 C6.16581818,14.6909332 6.07313455,14.6350626 6.06042446,14.545781 C6.048,14.4533439 6.12040463,14.3607212 6.22051438,14.3367766 C6.32248066,14.3137601 6.4137362,14.3679602 6.4267319,14.4596548" id="Fill-16"></path>
                                        </g>
                                    </g>
                                </g>
                            </g>
                        </g>
                    </g>
                </g>
            </g>
        </g>
    </g>
</svg>

<svg id="Layer_1" data-name="Layer 1" xmlns="http://www.w3.org/2000/svg" viewBox="0 0 18 17.05"><title>tools-github</title><g id="_-" data-name="-"><g id="intranet.st.5"><g id="Aside-Left"><g id="Group-9"><g id="Group-13"><g id="Group-10"><g id="Group-28"><g id="Group-29"><g id="Page-1"><g id="Group-3"><path id="Fill-1" d="M9,0.9A8.87,8.87,0,0,0,0,9.65a8.77,8.77,0,0,0,6.15,8.3,0.45,0.45,0,0,0,.61-0.42c0-.21,0-0.9,0-1.63-2.5.53-3-1-3-1a2.34,2.34,0,0,0-1-1.28c-0.82-.54.06-0.53,0.06-0.53a1.89,1.89,0,0,1,1.38.9,2,2,0,0,0,2.62.73,1.84,1.84,0,0,1,.57-1.17c-2-.22-4.1-1-4.1-4.32a3.33,3.33,0,0,1,.93-2.35,3.06,3.06,0,0,1,.09-2.31s0.76-.23,2.48.9a8.78,8.78,0,0,1,4.51,0c1.72-1.13,2.47-.9,2.47-0.9a3.05,3.05,0,0,1,.09,2.31,3.32,3.32,0,0,1,.93,2.35c0,3.36-2.11,4.1-4.11,4.31a2.06,2.06,0,0,1,.61,1.62c0,1.17,0,2.11,0,2.4a0.45,0.45,0,0,0,.62.42A8.77,8.77,0,0,0,18,9.65,8.87,8.87,0,0,0,9,.9" transform="translate(0 -0.9)"/><path id="Fill-4" d="M3.39,13a0.15,0.15,0,0,1-.22,0A0.21,0.21,0,0,1,3,12.85a0.15,0.15,0,0,1,.23,0,0.2,0.2,0,0,1,.12.24" transform="translate(0 -0.9)"/><path id="Fill-6" d="M3.71,13.37a0.2,0.2,0,0,1-.25-0.05,0.16,0.16,0,0,1,0-.24,0.2,0.2,0,0,1,.25.05,0.16,0.16,0,0,1,0,.24" transform="translate(0 -0.9)"/><path id="Fill-8" d="M4,13.8a0.22,0.22,0,0,1-.25-0.08,0.15,0.15,0,0,1,0-.23,0.22,0.22,0,0,1,.25.08,0.15,0.15,0,0,1,0,.23" transform="translate(0 -0.9)"/><path id="Fill-10" d="M4.46,14.25a0.18,0.18,0,0,1-.25,0A0.18,0.18,0,0,1,4.15,14a0.19,0.19,0,0,1,.25,0,0.17,0.17,0,0,1,.05.24" transform="translate(0 -0.9)"/><path id="Fill-12" d="M5.06,14.54a0.15,0.15,0,0,1-.22.09,0.21,0.21,0,0,1-.14-0.22,0.15,0.15,0,0,1,.22-0.09,0.21,0.21,0,0,1,.14.22" transform="translate(0 -0.9)"/><path id="Fill-14" d="M5.77,14.58a0.18,0.18,0,0,1-.18.17,0.18,0.18,0,0,1-.19-0.17,0.18,0.18,0,0,1,.18-0.17,0.18,0.18,0,0,1,.19.17" transform="translate(0 -0.9)"/><path id="Fill-16" d="M6.43,14.46a0.2,0.2,0,0,1-.16.21,0.16,0.16,0,0,1-.21-0.12,0.2,0.2,0,0,1,.16-0.21,0.16,0.16,0,0,1,.21.12" transform="translate(0 -0.9)"/></g></g></g></g></g></g></g></g></g></g></svg>
